X:1
T:The Close of the Year Transcribed from Harmonia Americana, 1791.
T:Samuel Holyoke, 1791
T:Anonymous First published 1773
%%score [ 1 2 3 ]
L:1/8
Q:1/4=70
M:4/4
K:Bb
V:1 treble nm="Treble" snm="Treble"
V:2 treble-8 nm="Tenor" snm="Tenor"
V:3 bass nm="Bass" snm="Bass"
V:1
"_So fly our months and years,      Thus  roll  the  sea – sons  on;                  Till death the curtains drop,    And life's gay scene _____________   is   done."!p!"^Treble Solo" F | %1
 B A B3/2 c/ !fermata!d2 z A | B3/2 c/ d/c/ B/A/ G<!fermata!^F z A | B3/2 G/ c3/2 d/ A2 z c | %4
 e c (dc/B/ AB/G<^F) G/ | G4 | %6
 z4 z2!mf! z"_So fly our months and years,   Thus roll  the sea–sons  on;       Till death the curtains drop,     And  life's  gay     scene ______________    is    done." d | %7
 g f g>=e !fermata!f2 z d | e3/2 f/ g/f/ e/d/ !fermata!c2 z d | e3/2 d/ e3/2 g/ ^f2 z f | %10
 g d (ed/c/ dc/B<A) ^F/ | G4 | %12
[K:Bb] z4 z2!p! z"_O   let  each  moment  then      Be  precious   in       our      eyes,         And let our actions show     That we are  tru         –        –        –        ly     wise.""^Treble Solo" G | %13
 B A B c{B} A3 d | G3/2 F/ (G{A)} B{G} ^F2 z d | e d c3/2 f/ B2 z c | e d (3(cBA BA/G<^F) A/ | G4 | %18
 z4 z2!mf! z"_O let each moment then        Be  precious  in  our  eyes,         And  let  our   actions    show ___   That   we  are  tru      –       –       –       ly    wise." d | %19
 g a f e f2 z ^f | g3/2 B/ c e d2 z d | e d e3/2 ^f/ (g2 d) d | c e (3(dgB (3cdB A3/2) B/ | G4 |] %24
V:2
 z | z8 | z8 | z8 | z8 | z4 | %6
 z4 z2!mf! z"_So  fly our months and years,   Thus roll  the sea–sons  on;       Till death the curtains drop,      And   life's gay      scene ______________   is    done." d | %7
 d c B3/2 [Gc]/ !fermata!A2 z d | [Gg]3/2 f/ e/d/ c/B/ !fermata!A2 z A | G3/2 A/ B3/2 c/ d2 z A | %10
 G A/>B/ (cB/A/ BA/G<^F) A/ | G4 |[K:Bb] z8 | z8 | z8 | z8 | z8 | z4 | %18
 z4 z2 z!mf!"_O let each moment then        Be  precious  in  our  eyes,         And  let  our   actions    show ___   That   we  are  tru      –       –       –       ly    wise." d | %19
 d c d c c2 z d | B3/2 G/ A c !fermata!B2 z B | G G G3/2 D/ B3 F | A c BGAG^F3/2 G/ | G4 |] %24
V:3
 z | z8 | z8 | z8 | z8 | z4 | z4 z2!mf! z ^F, | G, A, B,3/2 C/ !fermata!F,2 z B, | %8
 C3/2 D/ B, B, !fermata!F,2 z D, | G,3/2 F,/ E,3/2 E,/ !fermata!D,2 z D, | %10
 E, D, (C,2 B,,>C,D,3/2) D,/ | G,,4 |[K:Bb] z8 | z8 | z8 | z8 | z8 | z4 | z4 z2!mf! z G, | %19
 B, A, B, C F,2 z D, | E,3/2 G,/ F, F, !fermata!G,2 z G, | C B, C3/2 D/ G,3 B, | %22
 F, F, (G,2 C,2 D,3/2) D,/ | G,,4 |] %24

